Newaita-dark/apps/32/workspace-switcher-top-left.svg

<?xml version="1.0" encoding="UTF-8"?>
<svg xmlns="http://www.w3.org/2000/svg" xmlns:xlink="http://www.w3.org/1999/xlink" width="32pt" height="32pt" viewBox="0 0 32 32" version="1.1">
<defs>
<linearGradient id="linear0" gradientUnits="userSpaceOnUse" x1="254" y1="233.5" x2="254" y2="254.666672" gradientTransform="matrix(0.062506,0,0,0.062506,-0.00000381506,13.438783)">
<stop offset="0" style="stop-color:rgb(0%,0%,0%);stop-opacity:0.27451;"/>
<stop offset="1" style="stop-color:rgb(0%,0%,0%);stop-opacity:0;"/>
</linearGradient>
<radialGradient id="radial0" gradientUnits="userSpaceOnUse" cx="450.908936" cy="189.579361" fx="450.908936" fy="189.579361" r="21.166656" gradientTransform="matrix(0.00000017417,-0.0781325,-0.140638,-0.000000101539,53.453691,63.595331)">
<stop offset="0" style="stop-color:rgb(0%,0%,0%);stop-opacity:0.313725;"/>
<stop offset="0.222222" style="stop-color:rgb(0%,0%,0%);stop-opacity:0.27451;"/>
<stop offset="1" style="stop-color:rgb(0%,0%,0%);stop-opacity:0;"/>
</radialGradient>
<radialGradient id="radial1" gradientUnits="userSpaceOnUse" cx="450.908936" cy="189.579361" fx="450.908936" fy="189.579361" r="21.166656" gradientTransform="matrix(-0.00000017417,0.0781325,0.140638,0.000000101539,-21.700661,-7.527481)">
<stop offset="0" style="stop-color:rgb(0%,0%,0%);stop-opacity:0.313725;"/>
<stop offset="0.222222" style="stop-color:rgb(0%,0%,0%);stop-opacity:0.27451;"/>
<stop offset="1" style="stop-color:rgb(0%,0%,0%);stop-opacity:0;"/>
</radialGradient>
<radialGradient id="radial2" gradientUnits="userSpaceOnUse" cx="450.908936" cy="189.579361" fx="450.908936" fy="189.579361" r="21.166656" gradientTransform="matrix(-0.00000017417,-0.0781325,0.140638,-0.000000101539,-21.700661,63.595331)">
<stop offset="0" style="stop-color:rgb(0%,0%,0%);stop-opacity:0.313725;"/>
<stop offset="0.222222" style="stop-color:rgb(0%,0%,0%);stop-opacity:0.27451;"/>
<stop offset="1" style="stop-color:rgb(0%,0%,0%);stop-opacity:0;"/>
</radialGradient>
<radialGradient id="radial3" gradientUnits="userSpaceOnUse" cx="450.908936" cy="189.579361" fx="450.908936" fy="189.579361" r="21.166656" gradientTransform="matrix(0.00000017417,0.0781325,-0.140638,0.000000101539,53.453689,-7.527481)">
<stop offset="0" style="stop-color:rgb(0%,0%,0%);stop-opacity:0.313725;"/>
<stop offset="0.222222" style="stop-color:rgb(0%,0%,0%);stop-opacity:0.27451;"/>
<stop offset="1" style="stop-color:rgb(0%,0%,0%);stop-opacity:0;"/>
</radialGradient>
<linearGradient id="linear1" gradientUnits="userSpaceOnUse" x1="306.916656" y1="-25.791676" x2="305.954559" y2="-135.329163" gradientTransform="matrix(0.0753497,0,0,0.217412,-5.854013,33.641348)">
<stop offset="0" style="stop-color:rgb(36.078431%,41.960784%,75.294118%);stop-opacity:1;"/>
<stop offset="1" style="stop-color:rgb(47.45098%,52.54902%,79.607843%);stop-opacity:1;"/>
</linearGradient>
<linearGradient id="linear2" gradientUnits="userSpaceOnUse" x1="127" y1="43" x2="127" y2="-168.666672" gradientTransform="matrix(0.062506,0,0,0.062506,1.323043,14.668027)">
<stop offset="0" style="stop-color:rgb(69.019608%,74.509804%,77.254902%);stop-opacity:1;"/>
<stop offset="1" style="stop-color:rgb(81.176471%,84.705882%,86.27451%);stop-opacity:1;"/>
</linearGradient>
</defs>
<g id="surface1">
<path style=" stroke:none;fill-rule:nonzero;fill:url(#linear0);" d="M 4.628906 28.035156 L 27.121094 28.035156 L 27.121094 29.355469 L 4.628906 29.355469 Z M 4.628906 28.035156 "/>
<path style=" stroke:none;fill-rule:nonzero;fill:url(#radial0);" d="M 27.121094 28.035156 L 29.769531 28.035156 L 29.769531 26.710938 L 27.121094 26.710938 Z M 27.121094 28.035156 "/>
<path style=" stroke:none;fill-rule:nonzero;fill:url(#radial1);" d="M 4.628906 28.035156 L 1.984375 28.035156 L 1.984375 29.355469 L 4.628906 29.355469 Z M 4.628906 28.035156 "/>
<path style=" stroke:none;fill-rule:nonzero;fill:url(#radial2);" d="M 4.628906 28.035156 L 1.984375 28.035156 L 1.984375 26.710938 L 4.628906 26.710938 Z M 4.628906 28.035156 "/>
<path style=" stroke:none;fill-rule:nonzero;fill:url(#radial3);" d="M 27.121094 28.035156 L 29.769531 28.035156 L 29.769531 29.355469 L 27.121094 29.355469 Z M 27.121094 28.035156 "/>
<path style=" stroke:none;fill-rule:nonzero;fill:url(#linear1);" d="M 3.308594 4.21875 L 28.445312 4.21875 C 29.175781 4.21875 29.769531 4.8125 29.769531 5.542969 L 29.769531 26.710938 C 29.769531 27.441406 29.175781 28.035156 28.445312 28.035156 L 3.308594 28.035156 C 2.578125 28.035156 1.984375 27.441406 1.984375 26.710938 L 1.984375 5.542969 C 1.984375 4.8125 2.578125 4.21875 3.308594 4.21875 Z M 3.308594 4.21875 "/>
<path style=" stroke:none;fill-rule:nonzero;fill:rgb(0%,0%,0%);fill-opacity:0.235294;" d="M 3.308594 28.046875 C 2.574219 28.046875 1.984375 27.457031 1.984375 26.722656 L 1.984375 26.378906 C 1.984375 27.113281 2.574219 27.703125 3.308594 27.703125 L 28.445312 27.703125 C 29.179688 27.703125 29.769531 27.113281 29.769531 26.378906 L 29.769531 26.722656 C 29.769531 27.457031 29.179688 28.046875 28.445312 28.046875 Z M 3.308594 28.046875 "/>
<path style=" stroke:none;fill-rule:nonzero;fill:rgb(100%,100%,100%);fill-opacity:0.392157;" d="M 3.308594 4.296875 C 2.574219 4.296875 1.984375 4.886719 1.984375 5.617188 L 1.984375 5.960938 C 1.984375 5.230469 2.574219 4.640625 3.308594 4.640625 L 28.445312 4.640625 C 29.179688 4.640625 29.769531 5.230469 29.769531 5.960938 L 29.769531 5.617188 C 29.769531 4.886719 29.179688 4.296875 28.445312 4.296875 Z M 3.308594 4.296875 "/>
<path style=" stroke:none;fill-rule:nonzero;fill:rgb(12.941177%,12.941177%,12.941177%);fill-opacity:1;" d="M 3.308594 4.125 C 2.523438 4.125 1.890625 4.757812 1.890625 5.542969 L 1.890625 26.710938 C 1.890625 27.496094 2.523438 28.128906 3.308594 28.128906 L 28.445312 28.128906 C 29.230469 28.128906 29.863281 27.496094 29.863281 26.710938 L 29.863281 5.542969 C 29.863281 4.757812 29.230469 4.125 28.445312 4.125 Z M 3.308594 4.3125 L 28.445312 4.3125 C 29.128906 4.3125 29.675781 4.859375 29.675781 5.542969 L 29.675781 26.710938 C 29.675781 27.394531 29.128906 27.941406 28.445312 27.941406 L 3.308594 27.941406 C 2.625 27.941406 2.078125 27.394531 2.078125 26.710938 L 2.078125 5.542969 C 2.078125 4.859375 2.625 4.3125 3.308594 4.3125 Z M 3.308594 4.3125 "/>
<path style=" stroke:none;fill-rule:nonzero;fill:url(#linear2);" d="M 3.308594 4.125 L 15.875 4.125 C 16.605469 4.125 17.199219 4.71875 17.199219 5.449219 L 17.199219 16.03125 C 17.199219 16.761719 16.605469 17.355469 15.875 17.355469 L 3.308594 17.355469 C 2.578125 17.355469 1.984375 16.761719 1.984375 16.03125 L 1.984375 5.449219 C 1.984375 4.71875 2.578125 4.125 3.308594 4.125 Z M 3.308594 4.125 "/>
<path style=" stroke:none;fill-rule:nonzero;fill:rgb(100%,100%,100%);fill-opacity:0.392157;" d="M 3.308594 4.125 C 2.574219 4.125 1.984375 4.714844 1.984375 5.449219 L 1.984375 5.777344 C 1.984375 5.046875 2.574219 4.457031 3.308594 4.457031 L 15.875 4.457031 C 16.609375 4.457031 17.199219 5.046875 17.199219 5.777344 L 17.199219 5.449219 C 17.199219 4.714844 16.609375 4.125 15.875 4.125 Z M 3.308594 4.125 "/>
<path style=" stroke:none;fill-rule:nonzero;fill:rgb(0%,0%,0%);fill-opacity:0.235294;" d="M 3.308594 17.355469 C 2.574219 17.355469 1.984375 16.765625 1.984375 16.03125 L 1.984375 15.703125 C 1.984375 16.433594 2.574219 17.023438 3.308594 17.023438 L 15.875 17.023438 C 16.609375 17.023438 17.199219 16.433594 17.199219 15.703125 L 17.199219 16.03125 C 17.199219 16.765625 16.609375 17.355469 15.875 17.355469 Z M 3.308594 17.355469 "/>
<path style=" stroke:none;fill-rule:nonzero;fill:rgb(12.941177%,12.941177%,12.941177%);fill-opacity:1;" d="M 3.308594 4.03125 C 2.523438 4.03125 1.890625 4.664062 1.890625 5.449219 L 1.890625 16.03125 C 1.890625 16.816406 2.523438 17.449219 3.308594 17.449219 L 15.875 17.449219 C 16.660156 17.449219 17.292969 16.816406 17.292969 16.03125 L 17.292969 5.449219 C 17.292969 4.664062 16.660156 4.03125 15.875 4.03125 Z M 3.308594 4.21875 L 15.875 4.21875 C 16.558594 4.21875 17.105469 4.765625 17.105469 5.449219 L 17.105469 16.03125 C 17.105469 16.714844 16.558594 17.261719 15.875 17.261719 L 3.308594 17.261719 C 2.625 17.261719 2.078125 16.714844 2.078125 16.03125 L 2.078125 5.449219 C 2.078125 4.765625 2.625 4.21875 3.308594 4.21875 Z M 3.308594 4.21875 "/>
</g>
</svg>

<svg xmlns="http://www.w3.org/2000/svg" width="32pt" height="32pt" viewBox="0 0 32 32"><defs><linearGradient id="a" gradientUnits="userSpaceOnUse" x1="254" y1="233.5" x2="254" y2="254.667" gradientTransform="matrix(.0625 0 0 .0625 0 13.439)"><stop offset="0" stop-opacity=".275"/><stop offset="1" stop-opacity="0"/></linearGradient><radialGradient id="b" gradientUnits="userSpaceOnUse" cx="450.909" cy="189.579" fx="450.909" fy="189.579" r="21.167" gradientTransform="matrix(0 -.07813 -.14064 0 53.454 63.595)"><stop offset="0" stop-opacity=".314"/><stop offset=".222" stop-opacity=".275"/><stop offset="1" stop-opacity="0"/></radialGradient><radialGradient id="c" gradientUnits="userSpaceOnUse" cx="450.909" cy="189.579" fx="450.909" fy="189.579" r="21.167" gradientTransform="matrix(0 .07813 .14064 0 -21.7 -7.527)"><stop offset="0" stop-opacity=".314"/><stop offset=".222" stop-opacity=".275"/><stop offset="1" stop-opacity="0"/></radialGradient><radialGradient id="d" gradientUnits="userSpaceOnUse" cx="450.909" cy="189.579" fx="450.909" fy="189.579" r="21.167" gradientTransform="matrix(0 -.07813 .14064 0 -21.7 63.595)"><stop offset="0" stop-opacity=".314"/><stop offset=".222" stop-opacity=".275"/><stop offset="1" stop-opacity="0"/></radialGradient><radialGradient id="e" gradientUnits="userSpaceOnUse" cx="450.909" cy="189.579" fx="450.909" fy="189.579" r="21.167" gradientTransform="matrix(0 .07813 -.14064 0 53.454 -7.527)"><stop offset="0" stop-opacity=".314"/><stop offset=".222" stop-opacity=".275"/><stop offset="1" stop-opacity="0"/></radialGradient><linearGradient id="f" gradientUnits="userSpaceOnUse" x1="306.917" y1="-25.792" x2="305.955" y2="-135.329" gradientTransform="matrix(.07535 0 0 .21741 -5.854 33.641)"><stop offset="0" stop-color="#5c6bc0"/><stop offset="1" stop-color="#7986cb"/></linearGradient><linearGradient id="g" gradientUnits="userSpaceOnUse" x1="127" y1="43" x2="127" y2="-168.667" gradientTransform="matrix(.0625 0 0 .0625 1.323 14.668)"><stop offset="0" stop-color="#b0bec5"/><stop offset="1" stop-color="#cfd8dc"/></linearGradient></defs><path d="M4.629 28.035H27.12v1.32H4.63zm0 0" fill="url(#a)"/><path d="M27.121 28.035h2.649v-1.324H27.12zm0 0" fill="url(#b)"/><path d="M4.629 28.035H1.984v1.32H4.63zm0 0" fill="url(#c)"/><path d="M4.629 28.035H1.984v-1.324H4.63zm0 0" fill="url(#d)"/><path d="M27.121 28.035h2.649v1.32H27.12zm0 0" fill="url(#e)"/><path d="M3.309 4.219h25.136c.73 0 1.325.593 1.325 1.324v21.168c0 .73-.594 1.324-1.325 1.324H3.31c-.73 0-1.325-.594-1.325-1.324V5.543c0-.73.594-1.324 1.325-1.324zm0 0" fill="url(#f)"/><path d="M3.309 28.047a1.32 1.32 0 0 1-1.325-1.324v-.344c0 .734.59 1.324 1.325 1.324h25.136a1.32 1.32 0 0 0 1.325-1.324v.344a1.32 1.32 0 0 1-1.325 1.324zm0 0" fill-opacity=".235"/><path d="M3.309 4.297a1.32 1.32 0 0 0-1.325 1.32v.344c0-.73.59-1.32 1.325-1.32h25.136c.735 0 1.325.59 1.325 1.32v-.344c0-.73-.59-1.32-1.325-1.32zm0 0" fill="#fff" fill-opacity=".392"/><path d="M3.309 4.125c-.786 0-1.418.633-1.418 1.418v21.168c0 .785.632 1.418 1.418 1.418h25.136c.785 0 1.418-.633 1.418-1.418V5.543c0-.785-.633-1.418-1.418-1.418zm0 .188h25.136c.684 0 1.23.546 1.23 1.23v21.168c0 .684-.546 1.23-1.23 1.23H3.31c-.684 0-1.23-.546-1.23-1.23V5.543c0-.684.546-1.23 1.23-1.23zm0 0" fill="#212121"/><path d="M3.309 4.125h12.566c.73 0 1.324.594 1.324 1.324v10.582c0 .73-.594 1.324-1.324 1.324H3.309c-.73 0-1.325-.593-1.325-1.324V5.45c0-.73.594-1.324 1.325-1.324zm0 0" fill="url(#g)"/><path d="M3.309 4.125a1.32 1.32 0 0 0-1.325 1.324v.328c0-.73.59-1.32 1.325-1.32h12.566c.734 0 1.324.59 1.324 1.32V5.45a1.32 1.32 0 0 0-1.324-1.324zm0 0" fill="#fff" fill-opacity=".392"/><path d="M3.309 17.355a1.32 1.32 0 0 1-1.325-1.324v-.328c0 .73.59 1.32 1.325 1.32h12.566a1.32 1.32 0 0 0 1.324-1.32v.328a1.32 1.32 0 0 1-1.324 1.324zm0 0" fill-opacity=".235"/><path d="M3.309 4.031c-.786 0-1.418.633-1.418 1.418v10.582c0 .785.632 1.418 1.418 1.418h12.566c.785 0 1.418-.633 1.418-1.418V5.45c0-.785-.633-1.418-1.418-1.418zm0 .188h12.566c.684 0 1.23.547 1.23 1.23v10.582c0 .684-.546 1.23-1.23 1.23H3.309c-.684 0-1.23-.546-1.23-1.23V5.45c0-.683.546-1.23 1.23-1.23zm0 0" fill="#212121"/></svg>
